X:158
T:Tea and Skittles
R:reel
C:2013 L.E. McCullough 
M:4/4
L:1/8
K:Amixolydian
z4 zEAc|: edce d~G3 | (3BcdBG ~A3E | Aceg f3f | gfed ~e3e | 
edcd e~A3 | (3BcdBA ~G3A | ~B3d edBA |1GABG A4-|-A2 z2 zEAc :|2B~G3 A2 ef || 
|:gage a3f | gfed e~A3 | ~G3B dGBd | gfed ed^cd | 
~e3g a2 ~a2 | b~g3 a~f3 |1edB^A Bdgf | eGBG ~A2 ef :|2e~B3 gfed | BAGE A4-|-A2 z2 zEAc ||
<end>
<start>
